extensions/content/explorer/asset/icons/mimetype/svg/reference_file.svg

<?xml version="1.0" encoding="UTF-8" standalone="no"?>
<svg
   xmlns:dc="http://purl.org/dc/elements/1.1/"
   xmlns:cc="http://creativecommons.org/ns#"
   xmlns:rdf="http://www.w3.org/1999/02/22-rdf-syntax-ns#"
   xmlns:svg="http://www.w3.org/2000/svg"
   xmlns="http://www.w3.org/2000/svg"
   xmlns:sodipodi="http://sodipodi.sourceforge.net/DTD/sodipodi-0.dtd"
   xmlns:inkscape="http://www.inkscape.org/namespaces/inkscape"
   id="reference_file"
   width="100%"
   height="100%"
   viewBox="0 0 16 16"
   xml:space="preserve">
   <defs
     id="defs43" /><sodipodi:namedview
     pagecolor="#ffffff"
     bordercolor="#666666"
     borderopacity="1"
     objecttolerance="10"
     gridtolerance="10"
     guidetolerance="10"
     inkscape:pageopacity="0"
     inkscape:pageshadow="2"
     inkscape:window-width="1440"
     inkscape:window-height="794"
     id="namedview41"
     showgrid="false"
     inkscape:zoom="7.0648238"
     inkscape:cx="28.290486"
     inkscape:cy="13.760836"
     inkscape:window-x="0"
     inkscape:window-y="1"
     inkscape:window-maximized="0"
     inkscape:current-layer="reference_file"
     inkscape:snap-text-baseline="true" /><g
     id="g3"
     transform="matrix(-0.02993572,0,0,0.02993572,16.000014,3.396328e-7)"
     fill="currentColor"><g
       id="g5"><path
         d="m 77.519531,0 0,534.47852 379.439449,0 0,-409.5293 -137.18945,0 L 319.76953,0 77.519531,0 Z m 226.216799,208.49023 116.66601,116.66602 -116.66601,116.66602 0,-68.33204 c -83.33334,0 -141.66732,26.66667 -183.33399,85 16.66667,-83.33333 66.66732,-166.66731 183.33399,-183.33398 l 0,-66.66602 z"
         transform="matrix(-1,0,0,1,534.479,0)"
         id="path7"
         inkscape:connector-curvature="0" /><polygon
         points="85.968,109.649 199.409,109.649 199.409,6.928 "
         id="polygon9" /></g></g><g
     id="g11"
     transform="translate(0,-518.479)" /><g
     id="g13"
     transform="translate(0,-518.479)" /><g
     id="g15"
     transform="translate(0,-518.479)" /><g
     id="g17"
     transform="translate(0,-518.479)" /><g
     id="g19"
     transform="translate(0,-518.479)" /><g
     id="g21"
     transform="translate(0,-518.479)" /><g
     id="g23"
     transform="translate(0,-518.479)" /><g
     id="g25"
     transform="translate(0,-518.479)" /><g
     id="g27"
     transform="translate(0,-518.479)" /><g
     id="g29"
     transform="translate(0,-518.479)" /><g
     id="g31"
     transform="translate(0,-518.479)" /><g
     id="g33"
     transform="translate(0,-518.479)" /><g
     id="g35"
     transform="translate(0,-518.479)" /><g
     id="g37"
     transform="translate(0,-518.479)" /><g
     id="g39"
     transform="translate(0,-518.479)" /><g
     id="g3455"
     transform="matrix(0.65359477,0,0,0.65359477,120.40257,-334.98948)"
     style="fill:#ff0000"><g
       id="g3414"
       style="fill:#ff0000"><g
         id="share"
         style="fill:#ff0000" /></g><g
       id="g3419"
       style="fill:#ff0000" /><g
       id="g3421"
       style="fill:#ff0000" /><g
       id="g3423"
       style="fill:#ff0000" /><g
       id="g3425"
       style="fill:#ff0000" /><g
       id="g3427"
       style="fill:#ff0000" /><g
       id="g3429"
       style="fill:#ff0000" /><g
       id="g3431"
       style="fill:#ff0000" /><g
       id="g3433"
       style="fill:#ff0000" /><g
       id="g3435"
       style="fill:#ff0000" /><g
       id="g3437"
       style="fill:#ff0000" /><g
       id="g3439"
       style="fill:#ff0000" /><g
       id="g3441"
       style="fill:#ff0000" /><g
       id="g3443"
       style="fill:#ff0000" /><g
       id="g3445"
       style="fill:#ff0000" /><g
       id="g3447"
       style="fill:#ff0000" /></g></svg>

<?xml version="1.0" encoding="UTF-8" standalone="no"?>
<svg
   xmlns:dc="http://purl.org/dc/elements/1.1/"
   xmlns:cc="http://creativecommons.org/ns#"
   xmlns:rdf="http://www.w3.org/1999/02/22-rdf-syntax-ns#"
   xmlns:svg="http://www.w3.org/2000/svg"
   xmlns="http://www.w3.org/2000/svg"
   xmlns:sodipodi="http://sodipodi.sourceforge.net/DTD/sodipodi-0.dtd"
   xmlns:inkscape="http://www.inkscape.org/namespaces/inkscape"
   version="1.1"
   id="reference_file"
   x="0px"
   y="0px"
   width="100%"
   height="100%"
   viewBox="0 0 534.479 534.479"
   style="enable-background:new 0 0 534.479 534.479;"
   xml:space="preserve"><defs
     id="defs43" /><sodipodi:namedview
     pagecolor="#ffffff"
     bordercolor="#666666"
     borderopacity="1"
     objecttolerance="10"
     gridtolerance="10"
     guidetolerance="10"
     inkscape:pageopacity="0"
     inkscape:pageshadow="2"
     inkscape:window-width="1440"
     inkscape:window-height="794"
     id="namedview41"
     showgrid="false"
     inkscape:zoom="0.88310298"
     inkscape:cx="89.457289"
     inkscape:cy="267.2395"
     inkscape:window-x="0"
     inkscape:window-y="1"
     inkscape:window-maximized="0"
     inkscape:current-layer="generic"
     inkscape:snap-text-baseline="true" /><g
     id="g3"
     fill="currentColor"
     transform="matrix(-1,0,0,1,534.479,0)"><g
       id="g5"><path
         d="M 77.519531 0 L 77.519531 534.47852 L 456.95898 534.47852 L 456.95898 124.94922 L 319.76953 124.94922 L 319.76953 0 L 77.519531 0 z M 303.73633 208.49023 L 420.40234 325.15625 L 303.73633 441.82227 L 303.73633 373.49023 C 220.40299 373.49023 162.06901 400.1569 120.40234 458.49023 C 137.06901 375.1569 187.06966 291.82292 303.73633 275.15625 L 303.73633 208.49023 z "
         transform="matrix(-1,0,0,1,534.479,0)"
         id="path7" /><polygon
         points="199.409,6.928 85.968,109.649 199.409,109.649 "
         id="polygon9" /></g></g><g
     id="g11" /><g
     id="g13" /><g
     id="g15" /><g
     id="g17" /><g
     id="g19" /><g
     id="g21" /><g
     id="g23" /><g
     id="g25" /><g
     id="g27" /><g
     id="g29" /><g
     id="g31" /><g
     id="g33" /><g
     id="g35" /><g
     id="g37" /><g
     id="g39" /><g
     id="g3455"
     transform="matrix(0.65359477,0,0,0.65359477,120.40257,183.48952)"
     style="fill:#ff0000"><g
       id="g3414"
       style="fill:#ff0000"><g
         id="share"
         style="fill:#ff0000" /></g><g
       id="g3419"
       style="fill:#ff0000" /><g
       id="g3421"
       style="fill:#ff0000" /><g
       id="g3423"
       style="fill:#ff0000" /><g
       id="g3425"
       style="fill:#ff0000" /><g
       id="g3427"
       style="fill:#ff0000" /><g
       id="g3429"
       style="fill:#ff0000" /><g
       id="g3431"
       style="fill:#ff0000" /><g
       id="g3433"
       style="fill:#ff0000" /><g
       id="g3435"
       style="fill:#ff0000" /><g
       id="g3437"
       style="fill:#ff0000" /><g
       id="g3439"
       style="fill:#ff0000" /><g
       id="g3441"
       style="fill:#ff0000" /><g
       id="g3443"
       style="fill:#ff0000" /><g
       id="g3445"
       style="fill:#ff0000" /><g
       id="g3447"
       style="fill:#ff0000" /></g></svg>
